X:3855
T:Lunesdale Gavotte
O:England
A:Northwest
M:4/4
%%ID:00000cb5
F: http://www.leeds.ac.uk/music/Info/RRTuneBk/gettune/00000cb5.abc
K:G
g2d2 e2c2 | ABcA B2G2 \
|1 B2e2 d2B2 | AGAB A4 :|2 ABcd efgd | e2f2 g4 [K:D]:: \
a2a2 a2f2 | efge f2d2 | b2gb a2f2 | dfed cB A2 |\
a2a2 afdf | b2b2 afdf | g2g2 afdf | a2a2 d4 [K:Bm]::
B2e2 f4 | gage f4 | b2a2 g2e2 | fgfe d2B2 |\
B2e2 f4 | gage f4 | b2a2 gfeg | f2 fe f4:|


